X:3925
L:1/8
M:2/4
K:Emin
 GE- EE/F/ | G/F/E/F/ G2 | Be- ee/f/ | g/f/e/g/ f2 | GE- EE/F/ | G/F/E/F/ G2 | B,B z b | 
 z f/g/ e z :: z ez^d | z =d z ^c | =c(3B/c/B/ AG | FB,^A,B, | z e z ^d | z =d ^c | =c(3B/c/B/ AG | 
 FBE z :: D^DEF | G/B/d- d(3d/e/f/ | (g/f/)e/d/ (e/d/)c/B/ | (A/B/)c/B/ (A/G/)F/E/ | D^DEF | 
 G/B/d A/c/e | d/^c/d/f/ e/g/f/a/ | ggg z :|

